src/Icon/svgs/LinkOutside.svg

<svg width="24" height="24" viewBox="0 0 24 24" fill="none" xmlns="http://www.w3.org/2000/svg">
<path fill-rule="evenodd" clip-rule="evenodd" d="M5 19H19V14H21V20C21 20.5523 20.5523 21 20 21H4C3.44772 21 3 20.5523 3 20V4C3 3.44772 3.44772 3 4 3H10V5H5V19ZM21 10H19V6.5L13.5 12L12 10.5L17.5 5H14V3H21V10Z" fill="#1B1C1D"/>
</svg>

<svg xmlns="http://www.w3.org/2000/svg" width="24" height="24" fill="none"  xmlns:v="https://vecta.io/nano"><path fill-rule="evenodd" d="M5 19h14v-5h2v6a1 1 0 0 1-1 1H4a1 1 0 0 1-1-1V4a1 1 0 0 1 1-1h6v2H5v14zm16-9h-2V6.5L13.5 12 12 10.5 17.5 5H14V3h7v7z" fill="#1b1c1d"/></svg>
